X: 27
T: Mount Edgcumbe Minuet
%R: minuet, waltz
B: Straight & Skillern "Minuets for the year 1777", p.27
F: http://www.vwml.org/browse/browse-collections-dance-tune-books/browse-straight1777
Z: 2014 John Chambers <jc:trillian.mit.edu>
N: Version for ABC software that doesn't understand voice overlays.
M: 3/4
L: 1/8
K: G
% - - - - - - - - - - - - - - - - - - - - - - - - - - - - -
% Voice 1 formatted for a US-letter/A4 page size.
V: 1
|:\
G4BG | d4fd | {ef}g2f2e2 | dBG4 |\
d2D>FA>c | BGcAd2 | edc2B2 | T[B4G4][A2F2] :|
|:\
d2DFAc | B2TA2G2 | edc2B2 | T[B4G4]A2 |\
e4{a}g{f}e | d2c2Bg | (3({f}edc)T[B2G2][A2F2] | [A2F2]G4 :|
% - - - - - - - - - - - - - - - - - - - - - - - - - - - - -
% Voice 2 preserves the original staff breaks.
V: 2 clef=bass middle=d
|:\
g2b2g2 | f2d2f2 | e2d2c2 | G2B2G2 |\
d2f2d2 | g2a2b2 | c'ba2g2 | d'4d2 :|
|:\
d2f2d2 | g2a2b2 | c'ba2g2 | d'4d2 |\
c2e2c2 | B2A2G2 | c2d2D2 | G6 :|
% - - - - - - - - - - - - - - - - - - - - - - - - - - - - -

%%sep 1 1 500
%%sep 1 1 500
